assets/img/braze_icons/hurricane-01.svg

<svg fill="none" height="24" viewBox="0 0 24 24" width="24" xmlns="http://www.w3.org/2000/svg"><g clip-rule="evenodd" fill="#801ed7" fill-rule="evenodd"><path d="m6.52994 20.2573c.13414-.5357.67719-.8613 1.21294-.7272 1.16162.2909 2.63672.4699 4.25712.4699s3.0955-.179 4.2571-.4699c.5358-.1341 1.0788.1915 1.213.7272.1341.5358-.1915 1.0788-.7272 1.2129-1.3454.3369-2.9865.5298-4.7429.5298s-3.39752-.1929-4.74288-.5298c-.53575-.1341-.86132-.6771-.72718-1.2129z"/><path d="m5.06449 16.0772c.19513-.5166.77215-.7773 1.28882-.5822 1.32016.4986 3.33709.8383 5.64669.8383s4.3265-.3397 5.6467-.8383c.5167-.1951 1.0937.0656 1.2888.5822.1951.5167-.0655 1.0937-.5822 1.2889-1.6116.6086-3.8841.9672-6.3533.9672-2.46917 0-4.7417-.3586-6.35331-.9672-.51666-.1952-.77732-.7722-.5822-1.2889z"/><path d="m3.65129 11.139c.29209-.4687.90885-.6119 1.37757-.3199 1.19407.7441 3.78949 1.3476 6.97114 1.3476 3.1817 0 5.7771-.6035 6.9711-1.3476.4688-.292 1.0855-.1488 1.3776.3199s.1489 1.0855-.3198 1.3776c-1.6688 1.0398-4.7168 1.6501-8.0289 1.6501-3.31212 0-6.36008-.6103-8.02886-1.6501-.46873-.2921-.61193-.9089-.31985-1.3776z"/><path d="m5.31981 2.93c1.7556-.5852 4.11734-.93 6.68019-.93 2.5629 0 4.9246.3448 6.6802.93.8726.29085 1.6508.65923 2.2315 1.11685.5694.44874 1.0883 1.1012 1.0883 1.95315s-.5189 1.50441-1.0883 1.95315c-.5807.45762-1.3589.826-2.2315 1.11685-1.7556.5852-4.1173.93-6.6802.93-2.56285 0-4.92459-.3448-6.68019-.93-.87257-.29085-1.65085-.65923-2.23152-1.11685-.5694-.44874-1.08829-1.1012-1.08829-1.95315s.51889-1.50441 1.08829-1.95315c.58067-.45762 1.35895-.826 2.23152-1.11685z"/></g></svg>

<svg width="24" height="24" viewBox="0 0 24 24" fill="none" xmlns="http://www.w3.org/2000/svg">
<path fill-rule="evenodd" clip-rule="evenodd" d="M6.52994 20.2573C6.66408 19.7216 7.20713 19.396 7.74288 19.5301C8.9045 19.821 10.3796 20 12 20C13.6204 20 15.0955 19.821 16.2571 19.5301C16.7929 19.396 17.3359 19.7216 17.4701 20.2573C17.6042 20.7931 17.2786 21.3361 16.7429 21.4702C15.3975 21.8071 13.7564 22 12 22C10.2436 22 8.60248 21.8071 7.25712 21.4702C6.72137 21.3361 6.3958 20.7931 6.52994 20.2573Z" fill="#801ED7"/>
<path fill-rule="evenodd" clip-rule="evenodd" d="M5.06449 16.0772C5.25962 15.5606 5.83664 15.2999 6.35331 15.495C7.67347 15.9936 9.6904 16.3333 12 16.3333C14.3096 16.3333 16.3265 15.9936 17.6467 15.495C18.1634 15.2999 18.7404 15.5606 18.9355 16.0772C19.1306 16.5939 18.87 17.1709 18.3533 17.3661C16.7417 17.9747 14.4692 18.3333 12 18.3333C9.53083 18.3333 7.2583 17.9747 5.64669 17.3661C5.13003 17.1709 4.86937 16.5939 5.06449 16.0772Z" fill="#801ED7"/>
<path fill-rule="evenodd" clip-rule="evenodd" d="M3.65129 11.139C3.94338 10.6703 4.56014 10.5271 5.02886 10.8191C6.22293 11.5632 8.81835 12.1667 12 12.1667C15.1817 12.1667 17.7771 11.5632 18.9711 10.8191C19.4399 10.5271 20.0566 10.6703 20.3487 11.139C20.6408 11.6077 20.4976 12.2245 20.0289 12.5166C18.3601 13.5564 15.3121 14.1667 12 14.1667C8.68788 14.1667 5.63992 13.5564 3.97114 12.5166C3.50241 12.2245 3.35921 11.6077 3.65129 11.139Z" fill="#801ED7"/>
<path fill-rule="evenodd" clip-rule="evenodd" d="M5.31981 2.93C7.07541 2.3448 9.43715 2 12 2C14.5629 2 16.9246 2.3448 18.6802 2.93C19.5528 3.22085 20.331 3.58923 20.9117 4.04685C21.4811 4.49559 22 5.14805 22 6C22 6.85195 21.4811 7.50441 20.9117 7.95315C20.331 8.41077 19.5528 8.77915 18.6802 9.07C16.9246 9.6552 14.5629 10 12 10C9.43715 10 7.07541 9.6552 5.31981 9.07C4.44724 8.77915 3.66896 8.41077 3.08829 7.95315C2.51889 7.50441 2 6.85195 2 6C2 5.14805 2.51889 4.49559 3.08829 4.04685C3.66896 3.58923 4.44724 3.22085 5.31981 2.93Z" fill="#801ED7"/>
</svg>
